icon-themes/sifr_svg/cmd/lc_prevrecord.svg

<svg viewBox="0 0 24 24" xmlns="http://www.w3.org/2000/svg"><path d="m21 12a1 1 0 0 0 -1-1 1 1 0 0 0 -1 1 1 1 0 0 0 1 1 1 1 0 0 0 1-1zm-4 0c0-.552285-.447715-1-1-1s-1 .447715-1 1 .447715 1 1 1 1-.447715 1-1zm-4 0c0-.552285-.447715-1-1-1s-1 .447715-1 1 .447715 1 1 1 1-.447715 1-1zm-1-8h-.414062-.585938c-.30945 0-.516365.1127716-.75.28125l-8.25 7.71875 8.25 7.71875c.19768.19095.44055.28125.75.28125h.585938.414062v-1c0-.25689-.12983-.52846-.3125-.71875l-6.6875-6.28125 6.6875-6.28125c.18267-.19029.3125-.5037361.3125-.71875z" fill="#555753"/></svg>

<svg xmlns="http://www.w3.org/2000/svg" viewBox="0 0 24 24">
  <path
     style="fill:#555753"
     d="m 21,12 a 1,1 0 0 0 -1,-1 1,1 0 0 0 -1,1 1,1 0 0 0 1,1 1,1 0 0 0 1,-1 z m -4,0 c 0,-0.552285 -0.447715,-1 -1,-1 -0.552285,0 -1,0.447715 -1,1 0,0.552285 0.447715,1 1,1 0.552285,0 1,-0.447715 1,-1 z m -4,0 c 0,-0.552285 -0.447715,-1 -1,-1 -0.552285,0 -1,0.447715 -1,1 0,0.552285 0.447715,1 1,1 0.552285,0 1,-0.447715 1,-1 z M 12,4 H 11.585938 11 C 10.69055,4 10.483635,4.1127716 10.25,4.28125 L 2,12 10.25,19.71875 C 10.44768,19.9097 10.69055,20 11,20 H 11.585938 12 v -1 c 0,-0.25689 -0.12983,-0.52846 -0.3125,-0.71875 L 5,12 11.6875,5.71875 C 11.87017,5.52846 12,5.2150139 12,5 Z"
     />
</svg>
